logo/descript-icon.svg

<?xml version="1.0" encoding="UTF-8"?>
<svg width="256px" height="302px" viewBox="0 0 256 302" version="1.1" xmlns="http://www.w3.org/2000/svg" preserveAspectRatio="xMidYMid">
    <title>descript</title>
    <g>
        <path d="M0,274.036088 C0,290.498312 10.6830506,301.174965 27.1513097,301.174965 L106.480983,301.176471 C153.805195,301.176471 192.517882,285.170527 218.837567,257.150714 L0,257.150714 L0,274.036088 Z M106.480983,0.00150587482 L27.1513097,-2.13162821e-14 C10.6830506,-2.13162821e-14 0,10.6781584 0,27.140382 L0,44.0257563 L218.837567,44.0257563 C192.517882,16.0059436 153.805195,0.00150587482 106.480983,0.00150587482 Z M175.712152,193.501904 C175.712152,206.81986 184.391471,215.46057 197.772779,215.46057 L245.30791,215.46057 C250.696892,202.094425 254.317167,187.400099 256,171.543236 L197.772779,171.543236 C184.391471,171.543236 175.712152,180.182441 175.712152,193.501904 Z M109.82405,107.78299 C109.82405,121.102453 118.503369,129.741657 131.884677,129.741657 L256,129.741657 C254.317167,113.884795 250.696892,99.1904688 245.30791,85.8243238 L131.884677,85.8243238 C118.503369,85.8243238 109.82405,94.4635278 109.82405,107.78299 Z M131.869612,193.501904 C131.869612,180.182441 123.190292,171.543236 109.808984,171.543236 L0,171.543236 L0,215.46057 L109.808984,215.46057 C123.190292,215.46057 131.869612,206.821365 131.869612,193.501904 Z M65.9815093,107.78299 C65.9815093,94.4635278 57.3021898,85.8243238 43.9208818,85.8243238 L0,85.8243238 L0,129.741657 L43.9208818,129.741657 C57.3021898,129.741657 65.9815093,121.102453 65.9815093,107.78299 Z" fill="#0062FF"></path>
    </g>
</svg>

<svg viewBox="0 0 256 302" xmlns="http://www.w3.org/2000/svg"><path fill="#0062FF" d="M0 274.03c0 16.46 10.68 27.13 27.15 27.13l79.32 0c47.32 0 86.03-16.01 112.35-44.03H-.02v16.88ZM106.48-.01L27.15-.02C10.68-.02-.01 10.65-.01 27.12V44h218.83C192.5 15.98 153.78-.03 106.46-.03Zm69.23 193.5c0 13.31 8.67 21.95 22.06 21.95h47.53c5.38-13.37 9-28.07 10.69-43.92h-58.23c-13.39 0-22.07 8.63-22.07 21.95Zm-65.89-85.72c0 13.31 8.67 21.95 22.06 21.95h124.11c-1.69-15.86-5.31-30.56-10.7-43.92H131.86c-13.39 0-22.07 8.63-22.07 21.95Zm22.04 85.71c0-13.32-8.68-21.96-22.07-21.96H-.02v43.91h109.8c13.38 0 22.06-8.64 22.06-21.96Zm-65.89-85.72c0-13.32-8.68-21.96-22.07-21.96H-.03v43.91h43.92c13.38 0 22.06-8.64 22.06-21.96Z"/></svg>
